static/img/kroki/1eeddd91d35cbe87c4dd06c2f71318d3.svg

<?xml version="1.0" encoding="us-ascii" standalone="no"?><svg xmlns="http://www.w3.org/2000/svg" xmlns:xlink="http://www.w3.org/1999/xlink" contentStyleType="text/css" height="374px" preserveAspectRatio="none" style="width:303px;height:374px;" version="1.1" viewBox="0 0 303 374" width="303px" zoomAndPan="magnify"><defs/><g><!--class firewall--><g id="elem_firewall"><rect codeLine="23" fill="#3D176E" height="39.7891" id="firewall" rx="2.5" ry="2.5" style="stroke:#000D19;stroke-width:0.5;" width="105" x="7" y="167.79"/><ellipse cx="22" cy="187.6845" fill="#ADD1B2" rx="11" ry="11" style="stroke:#181818;stroke-width:1.0;"/><path d="M24.9688,193.3252 Q24.3906,193.622 23.75,193.7627 Q23.1094,193.9189 22.4063,193.9189 Q19.9063,193.9189 18.5781,192.2783 Q17.2656,190.622 17.2656,187.497 Q17.2656,184.372 18.5781,182.7158 Q19.9063,181.0595 22.4063,181.0595 Q23.1094,181.0595 23.75,181.2158 Q24.4063,181.372 24.9688,181.6689 L24.9688,184.3877 Q24.3438,183.8095 23.75,183.5439 Q23.1563,183.2627 22.5313,183.2627 Q21.1875,183.2627 20.5,184.3408 Q19.8125,185.4033 19.8125,187.497 Q19.8125,189.5908 20.5,190.6689 Q21.1875,191.7314 22.5313,191.7314 Q23.1563,191.7314 23.75,191.4658 Q24.3438,191.1845 24.9688,190.6064 L24.9688,193.3252 Z " fill="#000000"/><text fill="#D9B8FF" font-family="Helvetica" font-size="17" lengthAdjust="spacing" textLength="63" x="41" y="193.5698">firewall</text></g><!--class gcp_firewall--><g id="elem_gcp_firewall"><rect codeLine="26" fill="#3D176E" height="39.7891" id="gcp_firewall" rx="2.5" ry="2.5" style="stroke:#000D19;stroke-width:0.5;" width="142" x="68.5" y="328.58"/><ellipse cx="83.5" cy="348.4745" fill="#ADD1B2" rx="11" ry="11" style="stroke:#181818;stroke-width:1.0;"/><path d="M86.4688,354.1152 Q85.8906,354.412 85.25,354.5527 Q84.6094,354.7089 83.9063,354.7089 Q81.4063,354.7089 80.0781,353.0683 Q78.7656,351.412 78.7656,348.287 Q78.7656,345.162 80.0781,343.5058 Q81.4063,341.8495 83.9063,341.8495 Q84.6094,341.8495 85.25,342.0058 Q85.9063,342.162 86.4688,342.4589 L86.4688,345.1777 Q85.8438,344.5995 85.25,344.3339 Q84.6563,344.0527 84.0313,344.0527 Q82.6875,344.0527 82,345.1308 Q81.3125,346.1933 81.3125,348.287 Q81.3125,350.3808 82,351.4589 Q82.6875,352.5214 84.0313,352.5214 Q84.6563,352.5214 85.25,352.2558 Q85.8438,351.9745 86.4688,351.3964 L86.4688,354.1152 Z " fill="#000000"/><text fill="#D9B8FF" font-family="Helvetica" font-size="17" lengthAdjust="spacing" textLength="100" x="102.5" y="354.3598">gcp_firewall</text></g><!--class gcp_resource--><g id="elem_gcp_resource"><rect codeLine="29" fill="#3D176E" height="39.7891" id="gcp_resource" rx="2.5" ry="2.5" style="stroke:#000D19;stroke-width:0.5;" width="150" x="146.5" y="167.79"/><ellipse cx="161.5" cy="187.6845" fill="#ADD1B2" rx="11" ry="11" style="stroke:#181818;stroke-width:1.0;"/><path d="M164.4688,193.3252 Q163.8906,193.622 163.25,193.7627 Q162.6094,193.9189 161.9063,193.9189 Q159.4063,193.9189 158.0781,192.2783 Q156.7656,190.622 156.7656,187.497 Q156.7656,184.372 158.0781,182.7158 Q159.4063,181.0595 161.9063,181.0595 Q162.6094,181.0595 163.25,181.2158 Q163.9063,181.372 164.4688,181.6689 L164.4688,184.3877 Q163.8438,183.8095 163.25,183.5439 Q162.6563,183.2627 162.0313,183.2627 Q160.6875,183.2627 160,184.3408 Q159.3125,185.4033 159.3125,187.497 Q159.3125,189.5908 160,190.6689 Q160.6875,191.7314 162.0313,191.7314 Q162.6563,191.7314 163.25,191.4658 Q163.8438,191.1845 164.4688,190.6064 L164.4688,193.3252 Z " fill="#000000"/><text fill="#D9B8FF" font-family="Helvetica" font-size="17" lengthAdjust="spacing" textLength="108" x="180.5" y="193.5698">gcp_resource</text></g><!--class resource--><g id="elem_resource"><rect codeLine="32" fill="#3D176E" height="39.7891" id="resource" rx="2.5" ry="2.5" style="stroke:#000D19;stroke-width:0.5;" width="113" x="83" y="7"/><ellipse cx="98" cy="26.8945" fill="#ADD1B2" rx="11" ry="11" style="stroke:#181818;stroke-width:1.0;"/><path d="M100.9688,32.5352 Q100.3906,32.832 99.75,32.9727 Q99.1094,33.1289 98.4063,33.1289 Q95.9063,33.1289 94.5781,31.4883 Q93.2656,29.832 93.2656,26.707 Q93.2656,23.582 94.5781,21.9258 Q95.9063,20.2695 98.4063,20.2695 Q99.1094,20.2695 99.75,20.4258 Q100.4063,20.582 100.9688,20.8789 L100.9688,23.5977 Q100.3438,23.0195 99.75,22.7539 Q99.1563,22.4727 98.5313,22.4727 Q97.1875,22.4727 96.5,23.5508 Q95.8125,24.6133 95.8125,26.707 Q95.8125,28.8008 96.5,29.8789 Q97.1875,30.9414 98.5313,30.9414 Q99.1563,30.9414 99.75,30.6758 Q100.3438,30.3945 100.9688,29.8164 L100.9688,32.5352 Z " fill="#000000"/><text fill="#D9B8FF" font-family="Helvetica" font-size="17" lengthAdjust="spacing" textLength="71" x="117" y="32.7798">resource</text></g><!--reverse link resource to firewall--><g id="link_resource_firewall"><path codeLine="35" d="M121.7496,63.1243 C106.3696,93.6443 84.58,136.9 69.18,167.46 " fill="none" id="resource-backto-firewall" style="stroke:#FFAF37;stroke-width:2.0;"/><polygon fill="none" points="129.85,47.05,116.3915,60.4242,127.1077,65.8245,129.85,47.05" style="stroke:#FFAF37;stroke-width:2.0;"/></g><!--reverse link firewall to gcp_firewall--><g id="link_firewall_gcp_firewall"><path codeLine="36" d="M77.2504,223.9143 C92.6304,254.4343 114.42,297.69 129.82,328.25 " fill="none" id="firewall-backto-gcp_firewall" style="stroke:#FFAF37;stroke-width:2.0;"/><polygon fill="none" points="69.15,207.84,71.8923,226.6145,82.6085,221.2142,69.15,207.84" style="stroke:#FFAF37;stroke-width:2.0;"/></g><!--reverse link gcp_resource to gcp_firewall--><g id="link_gcp_resource_gcp_firewall"><path codeLine="37" d="M203.3512,223.8335 C187.5912,254.3535 165.21,297.69 149.43,328.25 " fill="none" id="gcp_resource-backto-gcp_firewall" style="stroke:#FFAF37;stroke-width:2.0;"/><polygon fill="none" points="211.61,207.84,198.0201,221.0806,208.6824,226.5864,211.61,207.84" style="stroke:#FFAF37;stroke-width:2.0;"/></g><!--reverse link resource to gcp_resource--><g id="link_resource_gcp_resource"><path codeLine="38" d="M157.6488,63.0435 C173.4088,93.5635 195.79,136.9 211.57,167.46 " fill="none" id="resource-backto-gcp_resource" style="stroke:#FFAF37;stroke-width:2.0;"/><polygon fill="none" points="149.39,47.05,152.3176,65.7964,162.9799,60.2906,149.39,47.05" style="stroke:#FFAF37;stroke-width:2.0;"/></g><!--SRC=[XP3BReCm54Jt_WfBMIEHHYr1wYP5gjfDL3NTLmPVWmNOwDeKfOz_Roa9CgzawPcZcRdE90SAPMMFj8Go1ZJ4v59L35b9TuYwYNIXaQw4O68JZCr7hUnLOCzAe4zGV82L2HiJRvbCSWN6q1l7Uc19dgAk5U_YBJ9b_YnGrg6YWXcpinPbN5jmnl0mtWen9iUXgmrV1tSmmJHom1FY-pvVXsFaQjN5ktlY83-1hjrFssiBavcJYd_guigMS4PE3ZtxYnjV6ETIfVJMqLwxJQW01_eXOrmtBIrOOTmQOm51ssC5qUGg2BTS1BFmyn9CalRhg9083IiA-aN8pqbBa-fzIKSmkiO4N7sezQ_xRy_p-WBI9tQwMq86oJF-Z7UMo2y0]--></g></svg>

<svg xmlns="http://www.w3.org/2000/svg" width="303" height="374" viewBox="0 0 303 374"><rect width="105" height="39.789" x="7" y="167.79" fill="#3D176E" rx="2.5" ry="2.5" style="stroke:#000d19;stroke-width:.5"/><circle cx="22" cy="187.685" r="11" fill="#ADD1B2" style="stroke:#181818;stroke-width:1"/><path d="M24.969 193.325q-.578.297-1.219.438-.64.156-1.344.156-2.5 0-3.828-1.64-1.312-1.657-1.312-4.782t1.312-4.781q1.328-1.656 3.828-1.656.703 0 1.344.156.656.156 1.219.453v2.719q-.625-.578-1.219-.844-.594-.281-1.219-.281-1.343 0-2.031 1.078-.687 1.062-.687 3.156t.687 3.172q.688 1.062 2.031 1.062.625 0 1.219-.265.594-.281 1.219-.86z"/><text x="41" y="193.57" fill="#D9B8FF" font-family="Helvetica" font-size="17" textLength="63">firewall</text><rect width="142" height="39.789" x="68.5" y="328.58" fill="#3D176E" rx="2.5" ry="2.5" style="stroke:#000d19;stroke-width:.5"/><circle cx="83.5" cy="348.474" r="11" fill="#ADD1B2" style="stroke:#181818;stroke-width:1"/><path d="M86.469 354.115q-.578.297-1.219.438-.64.156-1.344.156-2.5 0-3.828-1.64-1.312-1.657-1.312-4.782t1.312-4.781q1.328-1.656 3.828-1.656.703 0 1.344.156.656.156 1.219.453v2.719q-.625-.579-1.219-.844-.594-.281-1.219-.281-1.344 0-2.031 1.078-.687 1.062-.687 3.156t.687 3.172q.688 1.062 2.031 1.062.625 0 1.219-.265.594-.281 1.219-.86z"/><text x="102.5" y="354.36" fill="#D9B8FF" font-family="Helvetica" font-size="17" textLength="100">gcp_firewall</text><rect width="150" height="39.789" x="146.5" y="167.79" fill="#3D176E" rx="2.5" ry="2.5" style="stroke:#000d19;stroke-width:.5"/><circle cx="161.5" cy="187.685" r="11" fill="#ADD1B2" style="stroke:#181818;stroke-width:1"/><path d="M164.469 193.325q-.578.297-1.219.438-.64.156-1.344.156-2.5 0-3.828-1.64-1.312-1.657-1.312-4.782t1.312-4.781q1.328-1.656 3.828-1.656.703 0 1.344.156.656.156 1.219.453v2.719q-.625-.578-1.219-.844-.594-.281-1.219-.281-1.344 0-2.031 1.078-.687 1.062-.687 3.156t.687 3.172q.688 1.062 2.031 1.062.625 0 1.219-.265.594-.281 1.219-.86z"/><text x="180.5" y="193.57" fill="#D9B8FF" font-family="Helvetica" font-size="17" textLength="108">gcp_resource</text><rect width="113" height="39.789" x="83" y="7" fill="#3D176E" rx="2.5" ry="2.5" style="stroke:#000d19;stroke-width:.5"/><circle cx="98" cy="26.895" r="11" fill="#ADD1B2" style="stroke:#181818;stroke-width:1"/><path d="M100.969 32.535q-.578.297-1.219.438-.64.156-1.344.156-2.5 0-3.828-1.64-1.312-1.657-1.312-4.782t1.312-4.781q1.328-1.656 3.828-1.656.703 0 1.344.156.656.156 1.219.453v2.719q-.625-.578-1.219-.844-.594-.281-1.219-.281-1.344 0-2.031 1.078-.687 1.062-.687 3.156t.687 3.172q.688 1.062 2.031 1.062.625 0 1.219-.265.594-.281 1.219-.86z"/><text x="117" y="32.78" fill="#D9B8FF" font-family="Helvetica" font-size="17" textLength="71">resource</text><g fill="none"><path d="M121.75 63.124C106.37 93.644 84.58 136.9 69.18 167.46" style="stroke:#ffaf37;stroke-width:2"/><path d="m129.85 47.05-13.458 13.374 10.716 5.4z" style="stroke:#ffaf37;stroke-width:2"/></g><g fill="none"><path d="M77.25 223.914c15.38 30.52 37.17 73.776 52.57 104.336" style="stroke:#ffaf37;stroke-width:2"/><path d="m69.15 207.84 2.742 18.774 10.717-5.4z" style="stroke:#ffaf37;stroke-width:2"/></g><path fill="none" d="M203.351 223.834c-15.76 30.52-38.141 73.856-53.921 104.416m62.18-120.41-13.59 13.24 10.662 5.506zM157.649 63.044c15.76 30.52 38.141 73.856 53.921 104.416M149.39 47.05l2.928 18.746 10.662-5.505z" style="stroke:#ffaf37;stroke-width:2"/></svg>
